X: 1204
T: Schottis efter Salmakar Kalle
S: efter [[!Salmakar Kalle]] (Carl Adolf Österberg, Österbybruk, 1842-1913)
O: Uppland, Österbybruk
B: Spela nyckelharpa 2, nr 19
Z: Nils L
R: Schottis
M: 4/4
L: 1/8
K: C
{/c}e2 (ec) e2 (ed) | ccce g2 g2 | BBBd f2 ed | c2 (ce) g2 z2 |
{/c}e2 (ec) e2 (ed) | ccce g2 g2 | BBBd f2 (Bd) | ((3ded c2) c2 z2 :|
f2 a2 f2 a2 | c2 ce ce g2 | G2 Bd (fd) Bd | c2 ce g2 z2 |
f2 a2 f2 a2 | cc (ce) ce g2 | G2 Bd (fd) Bd | ((3ded c2) c2 z2 :|
(:musicend:)
(:music:)
